X:1
T:Courante
T:Chaconne L'Inconstante
T:Elisabeth Jacquet de la Guerre
T:Suite in D Minor  N° 8
%%score { ( 1 2 ) | ( 3 4 ) }
L:1/8
Q:1/4=73
M:3/4
K:D
V:1 treble nm="Piano" snm="Pno."
V:2 treble 
V:3 bass 
V:4 bass 
V:1
 [FA]6 | [EG]4 z2 | [DF]2 E2 MD2 | D3 C D2 :|[K:C]"_1er Couplet" A2 MBc d2 | f2 Pde P^c2 | %6
 a2 Pgf/e/ Mfd | M_b3 e a2- | adPef !turn!g2 | g4 fe | d3 e Pc>B | PB3 A/B/ A2 ||[K:D] [FA]6 | %13
 [EG]4 z2 | [DF]2 E2 MD2 | D3 C D2 ||[K:C]"_2e Couplet" DA P^FD MG2 | G4 PF2- | FdPc_B PA2- | %19
 z fPed P^c2- | c^cMde Mf2 | dc/d/ B2 eE/^F/ | ^GMA BMc dB | McA BP^G MA2 ||[K:D] [FA]6 | %25
 !arpeggio![EG]4 z2 | [DF]2 E2 MD2 | D3 C D2 ||[K:C]"_3e Couplet" D | ME^FMGAPFF | MGAM_BcPAd | %31
 P=B^cMdePcc | MdeMfgPee | agPfeMfe | dcPBAP^GA | BcdBMcd | eAB^G MA2 ||[K:D] [FA]6 | [EG]4 z2 | %39
 [DF]2 E2 MD2 | D3 C D2 ||[K:C]"_4e Couplet" z | z2 z A, DE | M^FDFG MA2 | z D- MG2 FE | %45
 MFD AB ^c2 | de f4 | e3 f g2 | c2 fedc | _BA Gc PA2 | [FA]6 | G6 | MDE !arpeggio![DF]4 | E4 MD2 | %54
 [FA]6 | G4 P^C2 | MDE [DF]4 | E4 MDD/E/ |"_5e Couplet" FE/D/ MA2 d2 | P^c>d e2 Mf>e | d2 Mc2 d2 | %61
 P_BA/B/ GA/B/ PAa/g/ | fe/d/ z e/d/ ^cB/A/ | Mff/e/ dd/c/ BB/A/ | P^G2 ee/d/ cc/B/ | %65
 Ad/c/ Be/d/ P^c2 |:[K:D] [FA]6 | !arpeggio![EG]4 z2 |[Q:1/4=63] [DF]2 E2 MD2 | D3 C D2 :| %70
V:2
 D6 | B,4 x2 | A,2 B,C x2 | [F,A,]2 E,G, [F,A,]2 :|[K:C] x6 | x6 | x6 | x4 f2 | x6 | A6 | %10
 AB P^G2 A2 | ^G3 x3 ||[K:D] D6 | B,4 x2 | A,2 B,C x2 | [F,A,]2 E,G, [F,A,]2 ||[K:C] x6 | x6 | x6 | %19
 A2 x4 | x6 | x2 ^G2 x2 | x6 | x6 ||[K:D] D6 | B,4 x2 | A,2 B,C x2 | [F,A,]2 E,G, [F,A,]2 || %28
[K:C] x | x6 | x6 | x6 | x6 | x6 | x6 | x6 | x6 ||[K:D] D6 | B,4 x2 | A,2 B,C x2 | %40
 [F,A,]2 E,G, [F,A,]2 ||[K:C] x | x6 | x6 | z2 D3 x | z D2 x z G | FG A2 d2- | dc_BAGB | A4- AA | %49
 GF E2 F2 | D6 | GFED P^C2 | x2 A,4 | [G,D]2 P^C2 x2 | D6 | GFED ^C2 | z2 A,4 | [A,D]2 P^C2 x2 | %58
 x6 | x6 | x6 | x6 | x6 | x6 | x6 | x6 |:[K:D] D6 | B,4 x2 | A,2 B,C x2 | [F,A,]2 E,G, [F,A,]2 :| %70
V:3
 D,2 PC,2 B,,2 | z2 E,,2 PF,,2- | F,,2 G,,A,, B,,G,, | A,,4 z2 :|[K:C] z6 |[K:treble] D2 FG A2 | %6
 A2 B^c d2- | dG Mc3 F | _B>AGFED | P^CA,B,C!turn!DE | FD E4 |[K:bass] E,4 A,,/G,,/F,,/E,,/ || %12
[K:D] D,,D, C,2 B,,2 | z2 E,,2 PF,,2- | F,,2 G,,A,, B,,2 | A,,4 D,,2 ||[K:C] z2 z2 z D | %17
 P^CB,CA, DD, | D2 EC FF, | F2 GE AA, | AGFE B,A,/B,/ | B,2 ED/E/ C2 | B,A, ^G,A, B,G, | %23
 A,F, D,E, A,G, ||[K:D] F,E,D,C,{C,} B,,2- | B,,2 E,,2 PF,,2- | F,,2 G,,MA,, B,,G,, | A,,4 D,,2 || %28
[K:C] z | z2 z2 z D, | E,^F,G,A, F,D, | G,A,_B,G, z E | F^CDE ^C2 | ^C4 DE | FEDCB,A, | %35
 P^G,A,B,G,A,B, | CF, D,E, A,G, ||[K:D] F,E,D,C,{C,} B,,2- | B,,2 E,,2 PF,,2- | %39
 F,,2 G,,MA,, B,,G,, | A,,4 D,,2 ||[K:C] A,, | D,E, P^F,3 G, | A,3 B,CA, | _B,3 G, A,2 | %45
 z2 F,2 E,2 | D,2 DEMFG | A2 MGF E2 | FEDC _B,2 | _B,2 CC, F,E, | D,C,_B,,A,,G,,F,, | E,,4 A,,G,, | %52
 F,,E,,D,,E,,F,,G,, | A,,6 | D,C,_B,,A,,G,,F,, | E,,4 A,,G,, | F,,E,, D,,E,,F,,G,, | A,,4 D,,2 | %58
 z2 z D,/E,/ F,E,/D,/ | A,A,/B,/ ^CB,/A,/ DD/E/ | FE/D/ AA/G/ ^FE/D/ | G>=FE>C F2- | A2 z2 G>F- | %63
 F2 F4 | EE/D/ CC/B,/ A,A,/G,/ | F,>D, E,2 A,A,/G,/ |:[K:D] F,F,/E,/ D,D,/C,/ B,,2- | %67
 B,,2 E,,2 F,,2- | F,,2 G,,A,, B,,G,, | A,,4 D,,2 :| %70
V:4
 x6 | x6 | x6 | z2 A,,,2 D,,2 :|[K:C] x6 |[K:treble] x6 | x6 | x6 | x6 | x6 | x2 z2 A,2 | %11
[K:bass] z2 E,,2 x2 ||[K:D] x6 | x6 | x6 | z2 A,,,2 x2 ||[K:C] x6 | x6 | x6 | x6 | x6 | x6 | x6 | %23
 x6 ||[K:D] x6 | x6 | x6 | z2 A,,,2 x2 ||[K:C] x | x6 | x6 | x4 A,2- | A,6- | A,3 A, x2 | x6 | x6 | %36
 x6 ||[K:D] x6 | x6 | x6 | z2 A,,,2 x2 ||[K:C] x | D,2 D,4 | D,6 | D,6 | D,6 | x6 | x6 | x6 | x6 | %50
 x6 | x6 | x6 | z2 A,,,2 D,,2 | x6 | x6 | x6 | z2 A,,,2 x2 | x6 | x6 | x6 | x6 | F2 E2- E>F | %63
 D4 D2 | x6 | x6 |:[K:D] x6 | x6 | x6 | z2 A,,,2 x2 :| %70

